X:1
T:Kas a barc'h Sunfolk 2
Z:Ren Quiniou (http://www.irisa.fr/prive/quiniou)
R:Andro
A:Bretagne
M:4/4
L:1/8
K:D
de/f/ ed ge/f/ gg|1de/f/ ed ge/f/ g2:|2de/f/ ed ge/f/ ga||ab af ga de/f/|:
ga g>e gf/e/ de/f/|1ga g>e g/f/e/f/ de/f/:|2ga g>e g/f/e/f/ d2|]
